X:1
T:Beaufort
T:A minor                    Merit Woodruff, 1800
T:Transcribed from Devotional Harmony, 1800.
T:Isaac Watts, 1709 (Hymn 48, Book 2)               86. 86. (C. M.)
%%score [ 1 2 3 4 ]
L:1/8
Q:1/4=90
M:4/4
K:C
V:1 treble nm="Tr." snm="Tr."
V:2 treble nm="C." snm="C."
V:3 treble-8 nm="T." snm="T."
V:4 bass nm="B." snm="B."
V:1
"_1. How vain are all things here below!  How false, and yet _________  how    fair!  Each pleasure  hath  its  poi        –         son  too,        And   eve      –      ry          sweet ____  a       snare.\n2. The brightest things below the sky    Give  but   a     flat          –         tering light; We should suspect some dan      –         ger  nigh      Where we ______ pos   –  sess _____  de   –  light." A4 e2 e2 | %1
 c2 c2 B2 A2 | ^G8 | A4 B2 B2 | (cedc B2) AG | A8 | c4 d2 d2 | e2 e2 (e2 ce | d2) B2 c4- | c4 e4 | %10
 (d3 c B2) A2 | (G3 A B2) AG | A8 |] %13
V:2
"_3. Our dearest joys, and nearest friends, The partners   of __________  our   blood,  How they di – vide  our wa         –      vering minds,   And    leave          but        half _____   for      God!" E4 A2 A2 | %1
 G2 G2 G2 F2 | E8 | E4 G2 G2 | (E2 A2 G2) E2 | E8 | A4 B2 G2 | E2 C2 (GF E2 | D2) D2 G4- | G4 E4 | %10
 G6 G2 | (G3 F E2) E2 | E8 |] %13
V:3
"_4. The fondness of a  creature's love,  How strong  it   strikes _______  the   sense!  Thi–ther  the warm af – fec         –      tions  move,   Nor    can ______ we      call               them  thence.\n5. Dear  Savior!  let  thy beauties be   My  soul's  e  –  ter           –           nal    food;   And grace command my heart _______ a  – way     From  all _______ cre   –  a         –       ted     good." A4 c2 c2 | %1
 e2 e2 d2 c2 | B8 | c4 d2 e>d | (c2 Ac B2) cB | A8 | e4 g2 ga | g2 e2 (c2 BA | d2) d2 e4- | e4 c4 | %10
 (d3 c d2) gf | e6 cB | A8 |] %13
V:4
 A,4 A,2 A,2 | E,2 C,2 G,2 A,2 | E,8 | A,4 G,2 E,2 | (C,2 D,2 E,2) E,2 | A,,8 | A,4 G,2 G,F, | %7
 E,2 A,,2 (C,D,E,F, | G,2) G,2 C,4- | C,4 C4 | (G,3 A, G,2) D,2 | E,6 E,2 | A,,8 |] %13

